pages/full-stack-developers/backend-services-for-full-stack-developers.svg

<?xml version="1.0" encoding="UTF-8"?>
<svg width="300px" height="232px" viewBox="0 0 300 232" version="1.1" xmlns="http://www.w3.org/2000/svg" xmlns:xlink="http://www.w3.org/1999/xlink">
    <!-- Generator: Sketch 41.2 (35397) - http://www.bohemiancoding.com/sketch -->
    <title>backend-services-for-full-stack-developers</title>
    <desc>Created with Sketch.</desc>
    <defs></defs>
    <g id="Page-1" stroke="none" stroke-width="1" fill="none" fill-rule="evenodd">
        <g id="backend-services-for-full-stack-developers" fill="#0070D3">
            <path d="M180.21332,186.752459 C174.86373,186.752459 170.511885,182.398156 170.511885,177.051025 L170.511885,164.347131 C170.511885,158.99877 174.86373,154.645697 180.21332,154.645697 L181.432992,154.645697 C182.70123,150.377459 184.458197,146.232172 186.651639,142.357377 L185.577664,141.284631 C183.743852,139.44959 182.73627,137.012705 182.73627,134.422746 C182.73627,131.86291 183.777664,129.356557 185.5875,127.556557 L194.556762,118.581148 C196.385656,116.754713 198.828074,115.739139 201.419262,115.739139 C204.015369,115.739139 206.457172,116.754713 208.288525,118.598361 L209.514959,119.818648 C211.059221,118.971516 212.653893,118.207992 214.27623,117.504713 C206.704303,115.35123 201.142008,108.391598 201.142008,100.131148 C201.142008,90.1555328 209.239549,82.0616803 219.220082,82.0616803 C229.19877,82.0616803 237.291393,90.1555328 237.291393,100.131148 C237.291393,101.175615 237.185041,102.185041 237.015984,103.180328 L244.047541,103.180328 C249.394672,103.180328 253.744057,107.526639 253.744057,112.880533 L253.744057,114.82377 C257.178689,115.81168 260.523566,117.131557 263.732582,118.718852 L263.732582,0.396516393 L0,0.396516393 L0,199.871311 L185.584426,199.871311 L186.166598,199.286066 C184.003279,195.315984 182.294877,191.091393 181.094877,186.748156 L180.21332,186.748156 L180.21332,186.752459 Z M51.5422131,118.200615 C41.5635246,118.200615 33.4678279,110.110451 33.4678279,100.128074 C33.4678279,90.1530738 41.5635246,82.0586066 51.5422131,82.0586066 C61.5209016,82.0586066 69.6135246,90.1530738 69.6135246,100.128074 C69.6129098,110.114139 61.5252049,118.200615 51.5422131,118.200615 Z M69.0872951,60.6356557 C68.9422131,60.2256148 68.7288934,59.8432377 68.4006148,59.5118852 L51.9983607,43.1157787 C50.8217213,41.9366803 48.9147541,41.9366803 47.7393443,43.1157787 C46.5651639,44.2930328 46.5651639,46.1920082 47.7393443,47.3661885 L61.0088115,60.635041 L27.4481557,60.635041 C27.4481557,38.8235656 45.1284836,21.1420082 66.9405738,21.1420082 C88.7495902,21.1420082 106.433607,38.8229508 106.433607,60.635041 L69.0872951,60.635041 L69.0872951,60.6356557 Z M135.382992,118.200615 C125.402459,118.200615 117.312295,110.110451 117.312295,100.128074 C117.312295,90.1530738 125.402459,82.0586066 135.382992,82.0586066 C145.36168,82.0586066 153.452459,90.1530738 153.452459,100.128074 C153.452459,110.114139 145.365984,118.200615 135.382992,118.200615 Z M200.814344,21.1463115 C222.62582,21.1463115 240.304918,38.8266393 240.304918,60.6387295 L203.810656,60.6387295 L213.940574,45.4758197 C214.868238,44.0981557 214.491393,42.2262295 213.11127,41.2979508 C211.725615,40.3752049 209.856148,40.7465164 208.934631,42.1303279 L196.560861,60.6387295 L161.320697,60.6387295 C161.320697,38.8241803 179.002869,21.1463115 200.814344,21.1463115 Z M296.860451,162.007377 L289.445902,162.007377 C288.053484,154.638934 285.065779,147.641803 280.69918,141.553279 L285.846516,136.406557 C286.348156,135.905533 286.629713,135.22623 286.629713,134.5125 C286.629713,133.803074 286.348156,133.123156 285.846516,132.622746 L276.868033,123.644877 C275.823566,122.597951 274.129918,122.597951 273.084836,123.644877 L267.789344,128.946516 C261.747541,124.815369 254.892418,122.006557 247.728074,120.735246 L247.728074,113.206352 C247.728074,111.731557 246.528689,110.535246 245.055738,110.535246 L232.35123,110.535246 C230.873361,110.535246 229.681967,111.734631 229.681967,113.206352 L229.681967,120.735246 C222.454303,122.012705 215.548156,124.851639 209.471926,129.036885 L204.318443,123.883402 C203.277049,122.834016 201.580328,122.834016 200.533402,123.883402 L191.555533,132.864959 C191.055123,133.36291 190.771721,134.042213 190.771721,134.755943 C190.771721,135.46168 191.055123,136.13791 191.555533,136.645697 L196.609426,141.694672 C192.295697,147.756762 189.342418,154.696721 187.963525,162.003074 L181.215369,162.003074 C179.741803,162.003074 178.543648,163.200615 178.543648,164.677869 L178.543648,177.37623 C178.543648,178.856557 179.741189,180.051025 181.215369,180.051025 L187.734221,180.051025 C188.960041,187.421311 191.804508,194.465164 196.053074,200.671721 L191.316393,205.408402 C190.271926,206.457787 190.271926,208.146516 191.316393,209.188525 L200.294877,218.177459 C200.795902,218.67541 201.480123,218.958197 202.186475,218.958197 C202.891598,218.958197 203.578279,218.67541 204.080533,218.177459 L208.664139,213.588934 C214.921721,218.069262 222.106352,221.097541 229.681352,222.442623 L229.681352,228.847131 C229.681352,230.321926 230.878893,231.516393 232.350615,231.516393 L245.055123,231.516393 C246.528074,231.516393 247.727459,230.317623 247.727459,228.847131 L247.727459,222.442623 C255.234221,221.110451 262.369057,218.116598 268.603893,213.682992 L273.32582,218.412295 C274.327869,219.414959 276.107582,219.414959 277.106557,218.412295 L286.089344,209.423975 C287.131967,208.381352 287.131967,206.692623 286.089344,205.650615 L281.259221,200.811885 C285.556352,194.569057 288.437705,187.470492 289.669057,180.05041 L296.859836,180.05041 C298.340779,180.05041 299.535246,178.852869 299.535246,177.375615 L299.535246,164.677254 C299.535246,163.204303 298.333402,162.007377 296.860451,162.007377 Z M239.042213,199.22459 C223.470492,199.22459 210.84959,186.597541 210.84959,171.035041 C210.84959,155.46332 223.470492,142.845492 239.042213,142.845492 C254.605328,142.845492 267.227459,155.46332 267.227459,171.035041 C267.226844,186.597541 254.605328,199.22459 239.042213,199.22459 Z M249.734631,171.035041 C249.734631,176.936066 244.940779,181.726844 239.041598,181.726844 C233.134426,181.726844 228.346721,176.936066 228.346721,171.035041 C228.346721,165.127869 233.140574,160.337705 239.041598,160.337705 C244.941393,160.33709 249.734631,165.127254 249.734631,171.035041 Z" id="Shape"></path>
        </g>
    </g>
</svg>

<svg width="300" height="232" viewBox="0 0 300 232" xmlns="http://www.w3.org/2000/svg"><title>backend-services-for-full-stack-developers</title><path d="M180.213 186.752c-5.35 0-9.701-4.354-9.701-9.701v-12.704c0-5.348 4.352-9.701 9.701-9.701h1.22a59.283 59.283 0 0 1 5.219-12.289l-1.074-1.072a9.643 9.643 0 0 1-2.842-6.862 9.755 9.755 0 0 1 2.852-6.866l8.969-8.976a9.663 9.663 0 0 1 6.862-2.842 9.62 9.62 0 0 1 6.87 2.86l1.226 1.22a57.16 57.16 0 0 1 4.761-2.314c-7.572-2.154-13.134-9.113-13.134-17.374 0-9.975 8.098-18.07 18.078-18.07 9.979 0 18.071 8.095 18.071 18.07 0 1.045-.106 2.054-.275 3.05h7.032c5.347 0 9.696 4.346 9.696 9.7v1.943a59.949 59.949 0 0 1 9.989 3.895V.397H0V199.87h185.584l.583-.585a59.222 59.222 0 0 1-5.072-12.538h-.882v.004zm-128.67-68.551c-9.98 0-18.075-8.09-18.075-18.073 0-9.975 8.096-18.07 18.074-18.07 9.979 0 18.072 8.095 18.072 18.07-.001 9.986-8.089 18.073-18.072 18.073zm17.544-57.565a2.966 2.966 0 0 0-.686-1.124L51.998 43.116a3.006 3.006 0 0 0-4.259 0 3.005 3.005 0 0 0 0 4.25l13.27 13.269h-33.56c0-21.811 17.68-39.493 39.492-39.493 21.809 0 39.493 17.681 39.493 39.493H69.087zm66.296 57.565c-9.98 0-18.07-8.09-18.07-18.073 0-9.975 8.09-18.07 18.07-18.07 9.979 0 18.07 8.095 18.07 18.07 0 9.986-8.087 18.073-18.07 18.073zm65.431-97.055c21.812 0 39.49 17.68 39.49 39.493h-36.493l10.13-15.163a3.01 3.01 0 1 0-5.006-3.345L196.56 60.638h-35.24c0-21.815 17.682-39.493 39.493-39.493zm96.046 140.861h-7.414a51.553 51.553 0 0 0-8.747-20.454l5.148-5.146c.501-.501.783-1.18.783-1.895 0-.709-.282-1.389-.783-1.89l-8.979-8.977a2.671 2.671 0 0 0-3.783 0l-5.296 5.302a51.562 51.562 0 0 0-20.06-8.212v-7.529c0-1.474-1.2-2.67-2.673-2.67H232.35a2.67 2.67 0 0 0-2.669 2.67v7.53a51.469 51.469 0 0 0-20.21 8.3l-5.154-5.153a2.669 2.669 0 0 0-3.785 0l-8.977 8.982a2.665 2.665 0 0 0-.784 1.89c0 .707.283 1.383.784 1.89l5.053 5.05a51.542 51.542 0 0 0-8.645 20.308h-6.749a2.675 2.675 0 0 0-2.671 2.675v12.698a2.672 2.672 0 0 0 2.671 2.675h6.52a51.495 51.495 0 0 0 8.318 20.62l-4.737 4.737a2.672 2.672 0 0 0 0 3.78l8.979 8.99c.5.497 1.185.78 1.891.78s1.392-.283 1.895-.78l4.583-4.59a51.617 51.617 0 0 0 21.017 8.855v6.404a2.67 2.67 0 0 0 2.67 2.67h12.704a2.675 2.675 0 0 0 2.672-2.67v-6.404a51.599 51.599 0 0 0 20.877-8.76l4.722 4.73c1.002 1.002 2.782 1.002 3.78 0l8.983-8.989a2.667 2.667 0 0 0 0-3.773l-4.83-4.84c4.297-6.242 7.179-13.34 8.41-20.76h7.19a2.673 2.673 0 0 0 2.676-2.675v-12.699a2.676 2.676 0 0 0-2.675-2.67zm-57.818 37.218c-15.572 0-28.192-12.627-28.192-28.19 0-15.572 12.62-28.19 28.192-28.19 15.563 0 28.185 12.618 28.185 28.19 0 15.563-12.622 28.19-28.185 28.19zm10.693-28.19c0 5.901-4.794 10.692-10.693 10.692-5.908 0-10.695-4.79-10.695-10.692 0-5.907 4.794-10.697 10.695-10.697 5.9 0 10.693 4.79 10.693 10.697z" fill="#0070D3" fill-rule="evenodd"/></svg>
